src/scalable/apps/eclipse.svg

<?xml version="1.0" encoding="UTF-8" standalone="no"?>
<svg
   xmlns:dc="http://purl.org/dc/elements/1.1/"
   xmlns:cc="http://creativecommons.org/ns#"
   xmlns:rdf="http://www.w3.org/1999/02/22-rdf-syntax-ns#"
   xmlns:svg="http://www.w3.org/2000/svg"
   xmlns="http://www.w3.org/2000/svg"
   xmlns:sodipodi="http://sodipodi.sourceforge.net/DTD/sodipodi-0.dtd"
   xmlns:inkscape="http://www.inkscape.org/namespaces/inkscape"
   width="64"
   height="64"
   version="1"
   id="svg22"
   sodipodi:docname="eclipse.svg"
   inkscape:version="0.92.4 (5da689c313, 2019-01-14)">
  <metadata
     id="metadata28">
    <rdf:RDF>
      <cc:Work
         rdf:about="">
        <dc:format>image/svg+xml</dc:format>
        <dc:type
           rdf:resource="http://purl.org/dc/dcmitype/StillImage" />
      </cc:Work>
    </rdf:RDF>
  </metadata>
  <defs
     id="defs26" />
  <sodipodi:namedview
     pagecolor="#ffffff"
     bordercolor="#666666"
     borderopacity="1"
     objecttolerance="10"
     gridtolerance="10"
     guidetolerance="10"
     inkscape:pageopacity="0"
     inkscape:pageshadow="2"
     inkscape:window-width="1366"
     inkscape:window-height="706"
     id="namedview24"
     showgrid="true"
     inkscape:zoom="7.375"
     inkscape:cx="38.213936"
     inkscape:cy="29.471241"
     inkscape:window-x="0"
     inkscape:window-y="32"
     inkscape:window-maximized="1"
     inkscape:current-layer="svg22">
    <inkscape:grid
       type="xygrid"
       id="grid818" />
  </sodipodi:namedview>
  <g
     id="g37"
     transform="matrix(0.83870968,0,0,0.83870968,4.1908258,6.6774215)">
    <path
       inkscape:connector-curvature="0"
       style="opacity:0.75;fill:#4c3a91;stroke:#3c2e72;stroke-width:2.38461542;stroke-miterlimit:4;stroke-dasharray:none;stroke-opacity:1"
       d="m 36.799431,0.402154 c -13.153665,0 -24.257212,8.4410192 -28.2300554,20.220697 H 65.029487 C 61.056643,8.8431732 49.953096,0.402154 36.799431,0.402154 Z M 8.5652182,20.63948 C 8.103652,22.010659 7.7403168,23.426219 7.4801665,24.87984 7.7403183,23.426211 8.1036702,22.010662 8.5652182,20.63948 Z m -1.0850517,4.24036 c -0.1872701,1.046393 -0.3212777,2.110784 -0.397021,3.192741 H 66.515716 c -0.07574,-1.081957 -0.20975,-2.146348 -0.397021,-3.192741 z m 58.6385285,0 c -0.26015,-1.453621 -0.623485,-2.869181 -1.085051,-4.24036 0.461547,1.371182 0.8249,2.786731 1.085051,4.24036 z M 7.0831455,28.095445 c -0.048209,0.696183 -0.083146,1.396783 -0.083146,2.105631 0,-0.708891 0.034745,-1.409452 0.083146,-2.105631 z m -0.083146,2.105631 c 0,0.708847 0.034937,1.409447 0.083146,2.10563 -0.048401,-0.696179 -0.083146,-1.39674 -0.083146,-2.10563 z M 66.515716,28.095445 c 0.0484,0.696179 0.08315,1.39674 0.08315,2.105631 0,-0.708848 -0.03494,-1.409448 -0.08315,-2.105631 z m 0.08315,2.105631 c 0,0.70889 -0.03475,1.409451 -0.08315,2.10563 0.04821,-0.696183 0.08315,-1.396783 0.08315,-2.10563 z M 7.0831455,32.32957 c 0.075743,1.081957 0.2097509,2.146348 0.397021,3.192742 H 66.118695 c 0.187271,-1.046394 0.321279,-2.110785 0.397021,-3.192742 z m 59.0355495,3.192742 c -0.260151,1.453628 -0.623504,2.869177 -1.085051,4.24036 0.461566,-1.37118 0.824901,-2.78674 1.085051,-4.24036 z m -58.6385285,0 c 0.2601503,1.45362 0.6234855,2.86918 1.0850517,4.24036 C 8.1036702,38.391489 7.7403183,36.97594 7.4801665,35.522312 Z M 8.5693756,39.7793 c 3.9728434,11.779678 15.0763904,20.220697 28.2300554,20.220697 13.153665,0 24.257212,-8.441019 28.230056,-20.220697 z"
       id="path821" />
    <rect
       width="59.615383"
       height="59.615383"
       x="-59.999996"
       y="-60.615383"
       rx="29.807692"
       ry="29.807692"
       transform="matrix(0,-1,-1,0,0,0)"
       style="opacity:0.75;fill:#f7941e;stroke:#ae6106;stroke-width:2.38461542;stroke-miterlimit:4;stroke-dasharray:none;stroke-opacity:1"
       id="rect819" />
    <rect
       id="rect4"
       style="fill:#f7941e;stroke-width:0.99999994"
       transform="matrix(0,-1,-1,0,0,0)"
       ry="29.807692"
       rx="29.807692"
       y="-60.615383"
       x="-59.999996"
       height="59.615383"
       width="59.615383" />
    <path
       id="rect10"
       d="m 36.799431,0.402154 c -13.153665,0 -24.257212,8.4410192 -28.2300554,20.220697 H 65.029487 C 61.056643,8.8431732 49.953096,0.402154 36.799431,0.402154 Z M 8.5652182,20.63948 C 8.103652,22.010659 7.7403168,23.426219 7.4801665,24.87984 7.7403183,23.426211 8.1036702,22.010662 8.5652182,20.63948 Z m -1.0850517,4.24036 c -0.1872701,1.046393 -0.3212777,2.110784 -0.397021,3.192741 H 66.515716 c -0.07574,-1.081957 -0.20975,-2.146348 -0.397021,-3.192741 z m 58.6385285,0 c -0.26015,-1.453621 -0.623485,-2.869181 -1.085051,-4.24036 0.461547,1.371182 0.8249,2.786731 1.085051,4.24036 z M 7.0831455,28.095445 c -0.048209,0.696183 -0.083146,1.396783 -0.083146,2.105631 0,-0.708891 0.034745,-1.409452 0.083146,-2.105631 z m -0.083146,2.105631 c 0,0.708847 0.034937,1.409447 0.083146,2.10563 -0.048401,-0.696179 -0.083146,-1.39674 -0.083146,-2.10563 z M 66.515716,28.095445 c 0.0484,0.696179 0.08315,1.39674 0.08315,2.105631 0,-0.708848 -0.03494,-1.409448 -0.08315,-2.105631 z m 0.08315,2.105631 c 0,0.70889 -0.03475,1.409451 -0.08315,2.10563 0.04821,-0.696183 0.08315,-1.396783 0.08315,-2.10563 z M 7.0831455,32.32957 c 0.075743,1.081957 0.2097509,2.146348 0.397021,3.192742 H 66.118695 c 0.187271,-1.046394 0.321279,-2.110785 0.397021,-3.192742 z m 59.0355495,3.192742 c -0.260151,1.453628 -0.623504,2.869177 -1.085051,4.24036 0.461566,-1.37118 0.824901,-2.78674 1.085051,-4.24036 z m -58.6385285,0 c 0.2601503,1.45362 0.6234855,2.86918 1.0850517,4.24036 C 8.1036702,38.391489 7.7403183,36.97594 7.4801665,35.522312 Z M 8.5693756,39.7793 c 3.9728434,11.779678 15.0763904,20.220697 28.2300554,20.220697 13.153665,0 24.257212,-8.441019 28.230056,-20.220697 z"
       style="fill:#4c3a91;stroke-width:0.99999994"
       inkscape:connector-curvature="0" />
    <path
       id="path14"
       d="M 16.957031,40 A 19.6,19.599999 0 0 0 35,52 19.6,19.599999 0 0 0 53.035156,40 Z"
       style="fill:#6e5dae"
       inkscape:connector-curvature="0" />
    <path
       id="path18"
       d="M 8.5693756,20.622851 C 8.1052288,21.999068 7.7413406,23.420499 7.4801665,24.87984 H 66.118695 c -0.261173,-1.459341 -0.625062,-2.880772 -1.089208,-4.256989 z m -1.4862301,7.44973 c -0.049258,0.703626 -0.083146,1.411918 -0.083146,2.128495 0,0.716576 0.033888,1.424868 0.083146,2.128494 H 66.515716 c 0.04926,-0.703626 0.08315,-1.411918 0.08315,-2.128494 0,-0.716577 -0.03389,-1.424869 -0.08315,-2.128495 z m 0.397021,7.449731 c 0.2611741,1.45934 0.6250623,2.880771 1.0892091,4.256988 H 65.029487 c 0.464146,-1.376217 0.828035,-2.797648 1.089208,-4.256988 z"
       style="fill:#ffffff;stroke-width:0.99999994"
       inkscape:connector-curvature="0" />
  </g>
</svg>

<svg xmlns="http://www.w3.org/2000/svg" width="64" height="64" version="1"><g transform="translate(4.19 6.677) scale(.83871)"><path d="M36.8.402a29.73 29.73 0 0 0-28.23 20.22h56.46A29.73 29.73 0 0 0 36.8.403zM8.564 20.64a29.664 29.664 0 0 0 0 0zM7.48 24.88a30.008 30.008 0 0 0-.397 3.194h59.433a30.007 30.007 0 0 0-.397-3.193zm58.639 0a29.664 29.664 0 0 0 0 0zM7.083 28.096a30.42 30.42 0 0 0 0 0zM7 30.201a30.42 30.42 0 0 0 0 0zm59.516-2.106a30.301 30.301 0 0 1 0 0zm.083 2.106a30.301 30.301 0 0 1 0 0zM7.083 32.33c.076 1.082.21 2.146.397 3.192h58.64c.187-1.046.321-2.11.397-3.192zm59.036 3.192a29.666 29.666 0 0 1 0 0zm-58.639 0a29.664 29.664 0 0 0 0 0zm1.09 4.257A29.73 29.73 0 0 0 36.8 60a29.73 29.73 0 0 0 28.23-20.22z" opacity=".75" fill="#4c3a91" stroke="#3c2e72" stroke-width="2.385"/><rect width="59.615" height="59.615" x="-60" y="-60.615" rx="29.808" ry="29.808" transform="matrix(0 -1 -1 0 0 0)" opacity=".75" fill="#f7941e" stroke="#ae6106" stroke-width="2.385"/><rect transform="matrix(0 -1 -1 0 0 0)" ry="29.808" rx="29.808" y="-60.615" x="-60" height="59.615" width="59.615" fill="#f7941e"/><path d="M36.8.402a29.73 29.73 0 0 0-28.23 20.22h56.46A29.73 29.73 0 0 0 36.8.403zM8.564 20.64zM7.48 24.88a30.008 30.008 0 0 0-.397 3.194h59.433a30.007 30.007 0 0 0-.397-3.193zm58.639 0zM7.083 28.096zM7 30.201zm59.516-2.106zm.083 2.106zM7.083 32.33c.076 1.082.21 2.146.397 3.192h58.64c.187-1.046.321-2.11.397-3.192zm59.036 3.192zm-58.639 0zm1.09 4.257A29.73 29.73 0 0 0 36.8 60a29.73 29.73 0 0 0 28.23-20.22z" fill="#4c3a91"/><path d="M16.957 40A19.6 19.6 0 0 0 35 52a19.6 19.6 0 0 0 18.035-12z" fill="#6e5dae"/><path d="M8.57 20.623a29.666 29.666 0 0 0-1.09 4.257h58.64a29.666 29.666 0 0 0-1.09-4.257zm-1.487 7.45C7.033 28.776 7 29.484 7 30.2c0 .717.034 1.425.083 2.129h59.433c.049-.704.083-1.412.083-2.129 0-.717-.034-1.425-.083-2.128zm.397 7.45c.261 1.459.625 2.88 1.09 4.256h56.46a29.666 29.666 0 0 0 1.089-4.257z" fill="#fff"/></g></svg>
